!!!COM: Bach, Johann Sebastian
!!!OTL: Erstanden ist der heil'ge Christ
!!!ONM: No. 176
!!!OCL: Erk
!!!YOE: Riemenschneider, Albert
!!!OPR: 371 Harmonized Chorales and 69 Chorale Melodies with Figured Bass
!!!OPT: Bach Chorale Harmonizations
**kern	**kern	**kern	**kern
! bass	! tenor	! alto	! soprano
*M3/4	*M3/4	*M3/4	*M3/4
*F:	*F:	*F:	*F:
4FF	4A	4c	4f
=1	=1	=1	=1
4.F	8A	4c	4.f
.	8B-	.	.
.	8A	8d	.
8E	8G	8e	8g
4D	4F	[4f	8a
.	.	.	8b-
=2	=2	=2	=2
4.C	2G	4f]	2cc
.	.	8e	.
8D	.	8f	.
8E	4c	[4g	4g
8C	.	.	.
=3	=3	=3	=3
4.F	2c	8g]	2a
.	.	8e	.
.	.	[2f	.
8E	.	.	.
4D	4d	.	4bn
=4	=4	=4	=4
2C;	2G;	4f]	2cc;
.	.	4e	.
4E	4c	[4g	4b-
=5	=5	=5	=5
4.F	8c	4g]	4.a
.	8A	.	.
.	2d	2f	.
8E	.	.	8g
4D	.	.	8a
.	.	.	8b-
=6	=6	=6	=6
4.E	8c	8g	2cc
.	8d	8f	.
.	4e	8g	.
8F#	.	[8a	.
4G	4d	8a]	4b-
.	.	[8g	.
=7	=7	=7	=7
4.D	4d	8g]	2a
.	.	16f	.
.	.	16e	.
.	4A	[4f	.
8C	.	.	.
4BB-	4D	8f]	4g
.	.	16e	.
.	.	16d	.
=8	=8	=8	=8
2AA;	2E;	2c#;	2a;
4D	4F	4d	4a
=9	=9	=9	=9
8A	4A	4.e	2cc
8AA	.	.	.
8A	[2c	.	.
8G	.	8f	.
8F	.	[4g	4b-
8E	.	.	.
=10	=10	=10	=10
8F	8c]	4g]	2a
8FF	8A	.	.
8F	8d	4f	.
8E	8c	.	.
8D	4B-	[4e	4g
8C#	.	.	.
=11	=11	=11	=11
4D	8A	4e]	2f
.	8F	.	.
4BB-	8B-	4d	.
.	8A	.	.
4Cn	4G	8c	4e
.	.	8B-	.
=12	=12	=12	=12
2D;	2F;	2A;	2f;
8D	4A	4d	4f
8C	.	.	.
=13	=13	=13	=13
4.BB-	4G	4d	8g
.	.	.	8f
.	4c	8e	8g
8AA	.	8f	8a
4GG	8d	8d	4b-
.	8G	8e	.
=14	=14	=14	=14
8FF	8A	2f	2a
8GG	8B-	.	.
8AA	[4c	.	.
8BB-	.	.	.
4C	8c]	[4e	4g
.	8B-	.	.
=15	=15	=15	=15
8D	4A	4e]	2f
8C	.	.	.
4BB-	8B-	4d	.
.	8A	.	.
4C	8G	4c	4e
.	8b-	.	.
=16	=16	=16	=16
2FF;	2A;	2c;	2f;
==	==	==	==
*-	*-	*-	*-
!!!CDT: 1685/3//-1750/7/28
!!!OCY: Deutschland
!!!AGN: chorale
!!!AST: Baroque
!!!AIN: vox
!!!YOY: 1941
!!!PPP: New York; London
!!!PPR: G. Schirmer
!!!ENC: David Huron
!!!EED: David Huron
!!!YEN: United States of America
!!!YER: 1992
!!!YEC: Copyright 1992 David Huron
!!!YEM: Rights to all derivative electronic formats reserved.
!!!YER: March 20, 1996
!!!AMT: simple quadruple
!!!EEV: 1.1
